X:1
T:Vulnerasti cor meum
T:Leon Leoni
T:Vulnerasti cor meum
C:Leon Leoni
%%score [ 1 2 3 ] 4
L:1/8
Q:1/4=108
M:4/4
K:C
V:1 alto1 nm="Cantus I" snm="CI"
V:2 alto1 nm="Cantus II" snm="CII"
V:3 bass nm="Bassus" snm="B"
V:4 bass nm="Partitura" snm="Ptra"
V:1
 x8 | z2 z2 z2 x2 | A8 | A4 A4- | A2 A2 B4 | cBABcBcd | c4 c4 | z8 | c3 B A2 G2 | A4 B4 | %10
w: ||Vul-|ne- ra-|* sti cor|me- * * * * * * *|* um,||so- ror me- a,|spon- sa;|
 z2 GF E2 D2 | G6 FG | A2 GF E4 | F4 z2 A2 | c4 B4 | z2 Bc d4 | c2 c2 B4 | A4 A4 | E4 E4- | %19
w: so- ror me- a,|spon- * *||sa; in|u- no|o- cu- lo-|rum tu- o-|rum, Vul-|ne- ra-|
 E2 E2 F4 | G2 A2 G4 | A2 A2 c4 | A6 GA | _B4 A4- | A2 F2 E4 | !fermata!D8 | d3 d d2 c2 | B6 c2 | %28
w: * sti cor|me- * *|um in u-|no o- cu-|lo- rum|_ tu- o-|rum,|et in u- no|cri- ne|
 d2 A2 B4 | c2 e4 d2- | d2 c4 B2 | A4 c3 _B | A2 GF E4 | ^F4 z2 =F2 | F2 G2 A4 | _B2 F2 D4 | %36
w: col- li tu-|i. Vul- ne-|* ra- sti|cor me- *||um, Quam|pul- chrae sunt|mam- mae, mam-|
 E2 F4 E2 | F2 A4 G2 | FGAF E4 | D2 d2 B2 c2- | cc A2 B3 B | G2 A3 GFG | AB c4 BA | G2 A2 ^G4 | %44
w: mae tu- *|ae, spon- sa|me- * * * *|a! Pul- chri- o-|* ra sunt u- be-|ra tu- * * *||* a vi-|
 A4 z2 A2 | B4 z2 G2 | A4 z2 G2 | E2 F2 E4 | ^F2 A4 G2- | G2 F4 E2 | D2 D4 ^C2 | D2 d2 A2 c2- | %52
w: no, et|mel et|lac sub|lin- gua tu-|a. Vul- ne-|* ra- sti|cor me- *|um, Vul- ne- ra-|
 cG _B2 A4 | A4 z2 E2 | F4 D4 | z2 GA _B4 | G2 A2 _B3 A | G8 | !fermata!^F8 |] %59
w: * sti cor me-|um, cor|me- um,|Vul- ne- ra-|sti cor me- *||um.|
V:2
 x8 | z2 z2 z2 x2 | F8 | F4 F4- | F2 F2 G4 | AGFGAGA_B | A4 A4 | G3 F E2 D2 | EFGEFD G2- | %9
w: ||Vul-|ne- ra-|* sti cor|me- * * * * * * *|* um,|so- ror me- a,|spon- * * * * * *|
 G2 ^F2 G4 | z4 z2 GF | E2 D2 FEFD | E2 D4 ^C2 | D2 D2 F4 | E2 EF G4 | D2 DE F4 | E2 A4 ^G2 | %17
w: * * sa;|so- ror|me- a, spon- * * *||sa; in u-|no o- cu- lo-|rum, o- cu- lo-|rum tu- o-|
 A4 E4 | ^C4 C4- | C2 ^C2 D4 | E2 F4 E2 | F2 F2 A4 | F6 EF | G4 F4 | E2 D4 ^C2 | D8 | B3 B B2 A2 | %27
w: rum, Vul-|ne- ra-|* sti cor|me- * *|um in u-|no o- cu-|lo- rum|tu- o- *|rum,|et in u- no|
 ^G4 G4 | A2 A2 ^G4 | A2 c4 B2- | B2 A3 A G2 | c3 _B A2 GF | E2 D4 ^C2 | D4 z2 D2 | D2 E2 F4- | %35
w: cri- ne|col- li tu-|i. Vul- ne-|* ra- sti cor|me- * * * *||um, Quam|pul- chrae sunt|
 F4 _B2 F2 | c3 A G4 | A2 F4 E2- | E2 D4 ^C2 | D4 z4 | A4 ^F2 G2- | GG E2 F3 E | D2 E4 DC | %43
w: _ mam- mae,|mam- mae tu-|ae, spon- sa|_ me- *|a!|Pul- chri- o-|* ra sunt u- be-|ra tu- * *|
 B,2 C2 B,4 | ^C2 E2 F4 | z2 D2 E4 | z2 F2 D2 E2 | C2 D4 ^C2 | D2 F4 E2- | E2 D3 D C2 | FEFD E4 | %51
w: * a vi-|no, et mel|et lac|sub lin- gua|tu- * *|a. Vul- ne-|* ra- sti cor|me- * * * *|
 D4 z2 A2 | E2 G3 G F2 | E2 D4 ^C2 | D2 D2 F4 | D4 z2 GA | _B4 G2 G2 | _B8 | A8 |] %59
w: um, Vul-|ne- ra- sti cor|me- * *|um, cor me-|um, Vul- ne-|ra- sti cor|me-|um.|
V:3
 x8 | z2 z2 z2 x2 | D,8 | D,4 D,4- | D,2 D,2 G,4 | F,8- | F,4 F,4 | z4 C,3 B,, | A,,2 G,,2 D,4 | %9
w: ||Vul-|ne- ra-|* sti cor|me-|* um,|so- ror|me- a, spon-|
 D,4 G,3 F, | E,2 D,2 C,4- | C,2 B,,C, D,4 | A,,8 | z4 D,4 | A,4 G,2 E,F, | G,4 D,2 D,2 | %16
w: sa; so- ror|me- a, spon-||sa;|in|u- no o- cu-|lo- rum tu-|
 A,,B,,C,D, E,4 | A,,4 A,,4 | A,,4 A,,4- | A,,2 A,,2 D,4 | C,8 | F,,8 | z8 | z8 | z8 | z8 | %26
w: o- * * * *|rum, Vul-|ne- ra-|* sti cor|me-|um,|||||
 G,,3 G,, G,,2 A,,2 | E,4 E,4 | D,2 F,2 E,4 | A,,2 A,2 ^F,2 G,2 | E,2 F,2 D,2 E,2 | A,,8- | A,,8 | %33
w: et in u- no|cri- ne|col- li tu-|i. Vul- ne- ra-|sti cor me- *|um,|_|
 z4 D,4 | D,2 C,2 F,4 | _B,,6 D,2 | C,8 | F,,2 F,4 C,2 | D,4 A,,2 A,2 | ^F,2 G,3 G, E,2 | %40
w: Quam|pul- chrae sunt|mam- mae|tu-|ae, spon- sa|me- a! Pul-|chri- o- ra sunt|
 F,3 F, D,2 E,2- | E,2 C,2 D,4- | D,2 C,B,,A,,B,,C,D, | E,8 | A,,2 A,,2 D,4 | z2 G,,2 C,4 | %46
w: u- be- ra tu-|* a vi-|||no, et mel|et lac|
 z2 F,2 G,2 G,2 | A,8 | D,2 D2 B,2 C2 | A,2 _B,2 G,2 A,2 | D,3 _B,, A,,4 | D,4 D,2 A,,2 | %52
w: sub lin- gua|tu-|a. Vul- ne- ra-|sti cor me- *|um, cor me-|um, Vul- ne-|
 C,2 G,,2 D,4 | A,,8 | D,8 | G,,8 | G,,8- | G,,8 | D,8 |] %59
w: ra- sti cor|me-|um,|cor|me-||um.|
V:4
 x8 | z2 z2 z2 x2 | D,8 | D,4 D,4- | D,2 D,2 G,4 | F,8 | F,8 | C,4 C,3 B,, | A,,2 G,,2 D,4 | %9
 D,4 G,3 F, | E,2 D,2 C,4- | C,2 B,,C, D,4 | A,,8 | D,4 D,4 | A,4 G,2 E,F, | G,4 D,2 D,2 | %16
 A,,B,,C,D, E,4 | A,,4 A,,4 | A,,4 A,,4- | A,,2 A,,2 D,4 | C,8 | F,,4 F,,4- | F,,2 A,,B,, C,4 | %23
 G,,4 D,4 | A,,8 | D,8 | G,,3 G,, G,,2 A,,2 | E,4 E,4 | D,2 F,2 E,4 | A,,2 A,2 ^F,2 G,2 | %30
 E,2 F,2 D,2 E,2 | A,,8- | A,,8 | D,4 D,4 | D,2 C,2 F,4 | _B,,6 D,2 | C,8 | F,,2 F,4 C,2 | %38
 D,4 A,,2 A,2 | ^F,2 G,3 G, E,2 | F,3 F, D,2 E,2- | E,2 C,2 D,4- | D,2 C,B,,A,,B,,C,D, | E,8 | %44
 A,,2 A,,2 D,4 | G,,4 C,4 | F,4 G,2 G,2 | A,8 | D,2 D2 B,2 C2 | A,2 _B,2 G,2 A,2 | D,3 _B,, A,,4 | %51
 D,4 D,2 A,,2 | C,2 G,,2 D,4 | A,,8 | D,8 | G,,8 | G,,8- | G,,8 | D,8 |] %59

